Source Code/mun/assets/flags/GBR.svg

<svg viewBox="0 0 40.5 40.5" xmlns="http://www.w3.org/2000/svg"><path d="m40.5 20.25a20.87 20.87 0 0 1 -.34 3.75 21.5 21.5 0 0 1 -.54 2.17 1.27 1.27 0 0 1 -.12.36c-.11.35-.23.71-.36 1.06a17.23 17.23 0 0 1 -.94 2.05 20.67 20.67 0 0 1 -1.76 2.78 20.16 20.16 0 0 1 -10.68 7.33 18.84 18.84 0 0 1 -2.16.49 20.18 20.18 0 0 1 -6.7 0 18.84 18.84 0 0 1 -2.16-.49 20.16 20.16 0 0 1 -10.68-7.35c-.23-.28-.43-.58-.64-.89a21.57 21.57 0 0 1 -1.14-1.92 19.4 19.4 0 0 1 -1.28-3.08 1.27 1.27 0 0 1 -.12-.36 21.5 21.5 0 0 1 -.54-2.15 20.87 20.87 0 0 1 -.34-3.75 19.41 19.41 0 0 1 .22-3 17.37 17.37 0 0 1 .44-2.17 4.34 4.34 0 0 1 .14-.48 10.59 10.59 0 0 1 .33-1.05 17.37 17.37 0 0 1 .87-2.06 17.87 17.87 0 0 1 1.66-2.84 20.14 20.14 0 0 1 11.08-7.88 18.84 18.84 0 0 1 2.16-.49 20.18 20.18 0 0 1 6.7 0 18.84 18.84 0 0 1 2.16.49 20.14 20.14 0 0 1 11.08 7.88c.2.3.41.6.61.91a21.71 21.71 0 0 1 1.07 2 19.36 19.36 0 0 1 1.18 3.11 4.34 4.34 0 0 1 .14.48 17.37 17.37 0 0 1 .44 2.17 19.41 19.41 0 0 1 .22 2.93z" fill="#012169"/><path d="m40.5 20.25a20.87 20.87 0 0 1 -.34 3.75 21.5 21.5 0 0 1 -.54 2.17h-38.74a21.5 21.5 0 0 1 -.54-2.17 20.87 20.87 0 0 1 -.34-3.75 19.41 19.41 0 0 1 .22-3 17.37 17.37 0 0 1 .44-2.17h39.18a17.37 17.37 0 0 1 .44 2.17 19.41 19.41 0 0 1 .22 3z" fill="#fff"/><path d="m25.76.77v39a18.84 18.84 0 0 1 -2.16.49 20.18 20.18 0 0 1 -6.7 0 18.84 18.84 0 0 1 -2.16-.49v-39a18.84 18.84 0 0 1 2.16-.49 20.18 20.18 0 0 1 6.7 0 18.84 18.84 0 0 1 2.16.49z" fill="#fff"/><path d="m40.5 20.25a20.87 20.87 0 0 1 -.34 3.75h-16.56v16.22a20.18 20.18 0 0 1 -6.7 0v-16.22h-16.56a20.87 20.87 0 0 1 -.34-3.75 19.41 19.41 0 0 1 .22-3h16.68v-16.97a20.18 20.18 0 0 1 6.7 0v17h16.68a19.41 19.41 0 0 1 .22 2.97z" fill="#cf142b"/><path d="m39.7 14.63-.93.48h-13v-.89l11.07-5.57c.2.3.41.6.61.91a21.71 21.71 0 0 1 1.07 2 19.36 19.36 0 0 1 1.18 3.07z" fill="#fff"/><path d="m38.52 11.52-7.17 3.59h-5l11.1-5.55a21.71 21.71 0 0 1 1.07 1.96z" fill="#cf142b"/><path d="m39.5 26.51c-.11.35-.23.71-.36 1.06a17.23 17.23 0 0 1 -.94 2.05 20.67 20.67 0 0 1 -1.76 2.78l-10.68-5.4v-.89h13z" fill="#fff"/><path d="m14.74 26.15v.85l-10.68 5.4c-.23-.28-.43-.58-.64-.89a21.57 21.57 0 0 1 -1.14-1.92 19.4 19.4 0 0 1 -1.28-3.08l.73-.36z" fill="#fff"/><path d="m14.16 26.15-10.74 5.36a21.57 21.57 0 0 1 -1.14-1.92l6.87-3.44z" fill="#cf142b"/><path d="m14.74 14.22v.89h-13l-.94-.48a10.59 10.59 0 0 1 .33-1.05 17.37 17.37 0 0 1 .87-2.09 17.87 17.87 0 0 1 1.66-2.84z" fill="#fff"/><g fill="#cf142b"><path d="m9.23 15.11h-5l-3.1-1.53a17.37 17.37 0 0 1 .87-2.09z"/><path d="m39.14 27.57a17.23 17.23 0 0 1 -.94 2.05l-6.93-3.47h5z"/></g></svg>

<svg xmlns="http://www.w3.org/2000/svg" viewBox="0 0 40.5 40.5"><defs><style>.cls-1{fill:#012169;}.cls-2{fill:#fff;}.cls-3{fill:#cf142b;}</style></defs><g id="Ebene_2" data-name="Ebene 2"><g id="Ńëîé_1" data-name="Ńëîé 1"><path class="cls-1" d="M40.5,20.25A20.87,20.87,0,0,1,40.16,24a21.5,21.5,0,0,1-.54,2.17,1.27,1.27,0,0,1-.12.36c-.11.35-.23.71-.36,1.06a17.23,17.23,0,0,1-.94,2.05,20.67,20.67,0,0,1-1.76,2.78,20.16,20.16,0,0,1-10.68,7.33,18.84,18.84,0,0,1-2.16.49,20.18,20.18,0,0,1-6.7,0,18.84,18.84,0,0,1-2.16-.49A20.16,20.16,0,0,1,4.06,32.4c-.23-.28-.43-.58-.64-.89a21.57,21.57,0,0,1-1.14-1.92A19.4,19.4,0,0,1,1,26.51a1.27,1.27,0,0,1-.12-.36A21.5,21.5,0,0,1,.34,24,20.87,20.87,0,0,1,0,20.25a19.41,19.41,0,0,1,.22-3,17.37,17.37,0,0,1,.44-2.17,4.34,4.34,0,0,1,.14-.48,10.59,10.59,0,0,1,.33-1.05A17.37,17.37,0,0,1,2,11.49,17.87,17.87,0,0,1,3.66,8.65,20.14,20.14,0,0,1,14.74.77,18.84,18.84,0,0,1,16.9.28a20.18,20.18,0,0,1,6.7,0,18.84,18.84,0,0,1,2.16.49A20.14,20.14,0,0,1,36.84,8.65c.2.3.41.6.61.91a21.71,21.71,0,0,1,1.07,2,19.36,19.36,0,0,1,1.18,3.11,4.34,4.34,0,0,1,.14.48,17.37,17.37,0,0,1,.44,2.17A19.41,19.41,0,0,1,40.5,20.25Z"/><path class="cls-2" d="M40.5,20.25A20.87,20.87,0,0,1,40.16,24a21.5,21.5,0,0,1-.54,2.17H.88A21.5,21.5,0,0,1,.34,24,20.87,20.87,0,0,1,0,20.25a19.41,19.41,0,0,1,.22-3,17.37,17.37,0,0,1,.44-2.17H39.84a17.37,17.37,0,0,1,.44,2.17A19.41,19.41,0,0,1,40.5,20.25Z"/><path class="cls-2" d="M25.76.77v39a18.84,18.84,0,0,1-2.16.49,20.18,20.18,0,0,1-6.7,0,18.84,18.84,0,0,1-2.16-.49V.77A18.84,18.84,0,0,1,16.9.28a20.18,20.18,0,0,1,6.7,0A18.84,18.84,0,0,1,25.76.77Z"/><path class="cls-3" d="M40.5,20.25A20.87,20.87,0,0,1,40.16,24H23.6V40.22a20.18,20.18,0,0,1-6.7,0V24H.34A20.87,20.87,0,0,1,0,20.25a19.41,19.41,0,0,1,.22-3H16.9V.28a20.18,20.18,0,0,1,6.7,0v17H40.28A19.41,19.41,0,0,1,40.5,20.25Z"/><path class="cls-2" d="M39.7,14.63l-.93.48h-13v-.89L36.84,8.65c.2.3.41.6.61.91a21.71,21.71,0,0,1,1.07,2A19.36,19.36,0,0,1,39.7,14.63Z"/><path class="cls-3" d="M38.52,11.52l-7.17,3.59h-5L37.45,9.56A21.71,21.71,0,0,1,38.52,11.52Z"/><path class="cls-2" d="M39.5,26.51c-.11.35-.23.71-.36,1.06a17.23,17.23,0,0,1-.94,2.05,20.67,20.67,0,0,1-1.76,2.78L25.76,27v-.89h13Z"/><path class="cls-2" d="M14.74,26.15V27L4.06,32.4c-.23-.28-.43-.58-.64-.89a21.57,21.57,0,0,1-1.14-1.92A19.4,19.4,0,0,1,1,26.51l.73-.36Z"/><path class="cls-3" d="M14.16,26.15,3.42,31.51a21.57,21.57,0,0,1-1.14-1.92l6.87-3.44Z"/><path class="cls-2" d="M14.74,14.22v.89h-13L.8,14.63a10.59,10.59,0,0,1,.33-1.05A17.37,17.37,0,0,1,2,11.49,17.87,17.87,0,0,1,3.66,8.65Z"/><path class="cls-3" d="M9.23,15.11h-5L1.13,13.58A17.37,17.37,0,0,1,2,11.49Z"/><path class="cls-3" d="M39.14,27.57a17.23,17.23,0,0,1-.94,2.05l-6.93-3.47h5Z"/></g></g></svg>
